public/images/icons/facebook.svg

<svg xmlns="http://www.w3.org/2000/svg" viewBox="0 0 512 512"><path fill="#fff" d="M452 0H60C26.916 0 0 26.916 0 60v392c0 33.084 26.916 60 60 60h392c33.084 0 60-26.916 60-60V60c0-33.084-26.916-60-60-60zm20 452c0 11.028-8.972 20-20 20H338V309h61.79L410 247h-72v-43c0-16.975 13.025-30 30-30h41v-62h-41c-50.923 0-91.978 41.25-91.978 92.174V247H216v62h60.022v163H60c-11.028 0-20-8.972-20-20V60c0-11.028 8.972-20 20-20h392c11.028 0 20 8.972 20 20v392z"/></svg>

<?xml version="1.0" encoding="UTF-8"?><svg  xmlns="http://www.w3.org/2000/svg" viewBox="0 0 512 512"><path d="M452,0H60C26.92,0,0,26.92,0,60V452c0,33.08,26.92,60,60,60H452c33.08,0,60-26.92,60-60V60c0-33.08-26.92-60-60-60Zm20,452c0,11.03-8.97,20-20,20h-114v-163h61.79l10.21-62h-72v-43c0-16.98,13.02-30,30-30h41v-62h-41c-50.92,0-91.98,41.25-91.98,92.17v42.83h-60.02v62h60.02v163H60c-11.03,0-20-8.97-20-20V60c0-11.03,8.97-20,20-20H452c11.03,0,20,8.97,20,20V452Z"/></svg>
